assets/img/icons/duotone-icons/Tools/Compass.svg

<?xml version="1.0" encoding="UTF-8"?>
<svg width="24px" height="24px" viewBox="0 0 24 24" version="1.1" xmlns="http://www.w3.org/2000/svg" xmlns:xlink="http://www.w3.org/1999/xlink">
    <!-- Generator: Sketch 52.2 (67145) - http://www.bohemiancoding.com/sketch -->
    <title>Stockholm-icons / Tools / Compass</title>
    <desc>Created with Sketch.</desc>
    <g id="Stockholm-icons-/-Tools-/-Compass" stroke="none" stroke-width="1" fill="none" fill-rule="evenodd">
        <rect id="bound" x="0" y="0" width="24" height="24"></rect>
        <path d="M7.07744993,12.3040451 C7.72444571,13.0716094 8.54044565,13.6920474 9.46808594,14.1079953 L5,23 L4.5,18 L7.07744993,12.3040451 Z M14.5865511,14.2597864 C15.5319561,13.9019016 16.375416,13.3366121 17.0614026,12.6194459 L19.5,18 L19,23 L14.5865511,14.2597864 Z M12,3.55271368e-14 C12.8284271,3.53749572e-14 13.5,0.671572875 13.5,1.5 L13.5,4 L10.5,4 L10.5,1.5 C10.5,0.671572875 11.1715729,3.56793164e-14 12,3.55271368e-14 Z" id="Combined-Shape" fill="#335EEA" opacity="0.3"></path>
        <path d="M12,10 C13.1045695,10 14,9.1045695 14,8 C14,6.8954305 13.1045695,6 12,6 C10.8954305,6 10,6.8954305 10,8 C10,9.1045695 10.8954305,10 12,10 Z M12,13 C9.23857625,13 7,10.7614237 7,8 C7,5.23857625 9.23857625,3 12,3 C14.7614237,3 17,5.23857625 17,8 C17,10.7614237 14.7614237,13 12,13 Z" id="Oval-43" fill="#335EEA"></path>
    </g>
</svg>

<svg width="24" height="24" viewBox="0 0 24 24" xmlns="http://www.w3.org/2000/svg"><g fill="none" fill-rule="evenodd"><path d="M0 0h24v24H0z"/><path d="M7.077 12.304a6.732 6.732 0 002.391 1.804L5 23l-.5-5 2.577-5.696zm7.51 1.956a6.72 6.72 0 002.474-1.64L19.5 18l-.5 5-4.413-8.74zM12 0a1.5 1.5 0 011.5 1.5V4h-3V1.5A1.5 1.5 0 0112 0z" fill="#335EEA" opacity=".3"/><path d="M12 10a2 2 0 100-4 2 2 0 000 4zm0 3a5 5 0 110-10 5 5 0 010 10z" fill="#335EEA"/></g></svg>
